img/sun-moon-mini.svg

<?xml version="1.0" encoding="UTF-8" standalone="no"?>
<svg
   xmlns:dc="http://purl.org/dc/elements/1.1/"
   xmlns:cc="http://creativecommons.org/ns#"
   xmlns:rdf="http://www.w3.org/1999/02/22-rdf-syntax-ns#"
   xmlns:svg="http://www.w3.org/2000/svg"
   xmlns="http://www.w3.org/2000/svg"
   xmlns:sodipodi="http://sodipodi.sourceforge.net/DTD/sodipodi-0.dtd"
   xmlns:inkscape="http://www.inkscape.org/namespaces/inkscape"
   inkscape:version="1.0 (4035a4fb49, 2020-05-01)"
   sodipodi:docname="sun-moon-mini.svg"
   id="svg36"
   xml:space="preserve"
   style="enable-background:new 0 0 612 612;"
   viewBox="0 0 612 612"
   height="22px"
   width="22px"
   y="0px"
   x="0px"
   version="1.1"><metadata
   id="metadata42"><rdf:RDF><cc:Work
       rdf:about=""><dc:format>image/svg+xml</dc:format><dc:type
         rdf:resource="http://purl.org/dc/dcmitype/StillImage" /></cc:Work></rdf:RDF></metadata><defs
   id="defs40">










</defs><sodipodi:namedview
   inkscape:current-layer="svg36"
   inkscape:window-maximized="0"
   inkscape:window-y="34"
   inkscape:window-x="10"
   inkscape:cy="13.553861"
   inkscape:cx="8.9443473"
   inkscape:zoom="26.211431"
   showgrid="false"
   id="namedview38"
   inkscape:window-height="1036"
   inkscape:window-width="1900"
   inkscape:pageshadow="2"
   inkscape:pageopacity="0"
   guidetolerance="10"
   gridtolerance="10"
   objecttolerance="10"
   borderopacity="1"
   bordercolor="#666666"
   pagecolor="#ffffff" />
<path
   sodipodi:nodetypes="ccccscccsc"
   d="m 189.45,351.607 42.016,-23.823 -7.402,-26.786 c -63.74,-6.041 -113.602,-59.725 -113.568,-125.054 0.036,-69.541 56.021,-125.496 125.562,-125.496 23.216,0 44.958,6.301 63.614,17.287 C 272.30962,8.5501981 210.86709,0.40155073 176.537,0.002 79.864,0.461 1.264,79.553 1.381,176.228 c 0.118,97.107 78.875,175.792 176.01,175.792 4.054,0 8.073,-0.143 12.059,-0.413 z"
   id="path14"
   style="fill:#dbcda5" />
<g
   transform="matrix(1.8216579,0,0,1.8216579,170.37669,173.80756)"
   fill="#dbcda5"
   id="g4"><path
     style="stroke-width:0.966811"
     d="m 116.21662,186.44851 c -37.214513,0 -67.382898,-30.16935 -67.382898,-67.38386 0,-37.214504 30.168385,-67.383856 67.382898,-67.383856 37.21644,0 67.38579,30.169352 67.38579,67.383856 0,37.21451 -30.16935,67.38386 -67.38579,67.38386 z m 81.18799,-48.04763 34.82938,-19.33623 -34.82938,-19.336231 z M 35.028621,99.728419 0.19923786,119.06465 35.028621,138.40088 Z M 116.21662,235.08203 135.55285,200.25265 H 96.880385 Z m 0,-232.0347539 L 96.880385,37.87666 H 135.55285 Z M 45.137602,162.80127 34.180728,201.10151 72.481931,190.14753 Z M 159.95323,47.981773 187.29756,75.328035 198.25347,37.029733 Z M 34.180728,37.028766 45.136635,75.328035 72.480964,47.981773 Z m 125.772502,153.118764 38.30024,10.95398 -10.95591,-38.30024 z"
     id="path2" /></g></svg>

<?xml version="1.0" encoding="UTF-8"?>
<svg width="22px" height="22px" enable-background="new 0 0 612 612" version="1.1" viewBox="0 0 612 612" xml:space="preserve" xmlns="http://www.w3.org/2000/svg" xmlns:cc="http://creativecommons.org/ns#" xmlns:dc="http://purl.org/dc/elements/1.1/" xmlns:rdf="http://www.w3.org/1999/02/22-rdf-syntax-ns#">
<path d="m189.45 351.61 42.016-23.823-7.402-26.786c-63.74-6.041-113.6-59.725-113.57-125.05 0.036-69.541 56.021-125.5 125.56-125.5 23.216 0 44.958 6.301 63.614 17.287-27.362-59.185-88.805-67.333-123.14-67.733-96.673 0.459-175.27 79.551-175.16 176.23 0.118 97.107 78.875 175.79 176.01 175.79 4.054 0 8.073-0.143 12.059-0.413z" fill="#dbcda5"/>
<g transform="matrix(1.8217 0 0 1.8217 170.38 173.81)" fill="#dbcda5"><path d="m116.22 186.45c-37.215 0-67.383-30.169-67.383-67.384 0-37.215 30.168-67.384 67.383-67.384 37.216 0 67.386 30.169 67.386 67.384 0 37.215-30.169 67.384-67.386 67.384zm81.188-48.048 34.829-19.336-34.829-19.336zm-162.38-38.672-34.829 19.336 34.829 19.336zm81.188 135.35 19.336-34.829h-38.672zm0-232.03-19.336 34.829h38.672zm-71.079 159.75-10.957 38.3 38.301-10.954zm114.82-114.82 27.344 27.346 10.956-38.298zm-125.77-10.953 10.956 38.299 27.344-27.346zm125.77 153.12 38.3 10.954-10.956-38.3z" stroke-width=".96681"/></g></svg>
